X: 04015
T: CHERTOK'S REEL
C: Bob McQuillen 23 July 79
B: Bob's Note Book 04 #15
%R: reel
Z: 2020 John Chambers <jc:trillian.mit.edu>
M: C
L: 1/8
K: D	% and Bm
dB \
| FABd BAde | f2a2 a2ba | fedf edfe | dBBA B2dB |\
| FABd BAde | faab afde | fbaf edfe | d2B2 B2 :|
|: FA \
| Bddc B2FA | GBAF E2DE | FGFE DCDE | F2B,2 B,2 Bc |\
| dedc BAFA | Bdef e2de | fedc BAFE | F2B2 B2 :|
%%begintext align
%% Besides being a real nice guy, Alan
%% Chertok, who lives in Carlisle, Mass.,
%% is also a fine musician in our New
%% England dance music, playing fiddle
%% and drum. Wish you lived closer, Alan!
%%endtext

%%sep 1 1 500

%%sep 1 1 500

